X:1
T:Title
%%score [ 1 2 3 4 ]
L:1/8
Q:1/4=120
M:none
K:Bb
V:1 treble nm="S."
V:2 treble nm="A."
V:3 treble-8 nm="T."
V:4 bass nm="B."
V:1
 G6 B2 A2"^O ye tender babes" A2 G4 B2 (c4 B2)"^Thomas Tallis""^(c.1505-1585)" A4 z2 | %1
w: O ye ten- der babes of Eng * land,|
 A2 B2 A2 A4 A3 BcA d4 ^c2 d4 z2 | B2 B2 B2 A3 B c2 B2 B2 AG A2 A2 z2 | %3
w: shake off sloth- ful- ness, set wan- ton- ness a- part.|Ap- ply your wits whol- ly to learn- ing and vir- tue,|
 F3 G A2 B3 B A2 G2 G2 ^F2 G4 z2 | A3 B c2 d3 c(BG) A2 G6 ^F2 G4 | G4 B3 B c4 B2 A2 G3 G ^F4 z2 | %6
w: where- by you may do your du- ty to God,|may do your du- ty to * God and your King.|Make glad your par- ents, pro- fit your- selves;|
 G4 ^F2 G2 A2 B2 (c4 B4) A2 B4 z2 | B4 A2 B2 c2 d4 (d2 c2) B4 A4 z2 | %8
w: and much ad- vance the com * mon- weal,|the com- mon- weal of your * coun- try,|
 G3 A B2 c3 B A2 G2 G2 ^F2 G4 z2 | d3 d c2 BB A2 A2 G4 ^F2 G6 | %10
w: where- by you may do your du- ty to God;|may do your du- ty to God and your King.|
V:2
 D6 G2 F2 F2 D4 G2 (A4 G2) ^F4 z2 | !courtesy!=F2 G2 F2 =E4 F2 F2 AA G2 A4 A4 z2 | %2
w: O ye ten- der babes of Eng * land,|shake off sloth- ful- ness, set wan- ton- ness a- part.|
 G2 G2 G2 F3 F F2 F2 F2 =EE F2 F2 z2 | D3 !courtesy!_E F2 G3 G F2 E2 D2 D2 D4 z2 | %4
w: Ap- ply your wits whol- ly to learn- ing and vir- tue,|where- by you may do your du- ty to God,|
 F3 F G2 A3 A G2 F2 D6 D2 D4 | D4 G3 G (G2 ^F2) G2 D2 E2 C2 D4 z2 | %6
w: may do your du- ty to God and your King.|Make glad your par * ents, pro- fit your- selves;|
 D4 D2 D2 F2 F2 G4 (E2 F4) F4 z2 | G4 ^F2 G2 A2 B4 (B2 A2) G4 !courtesy!^F4 z2 | %8
w: and much ad- vance the com- mon * weal.|the com- mon- weal of your * coun- try,|
 D3 E D2 F3 F F2 D2 D2 D2 D4 z2 | B3 A G2 FF F2 F2 D4 D2 D6 | %10
w: where- by you may do your du- ty to God;|may do your du- ty to God and your King.|
V:3
 B6 B2 d3 c B4 d2 (f3 edc) d4 z2 | %1
w: O ye ten- der babes of Eng * * * land,|
 d2 d2 d3 (^c/=B/ !courtesy!^c2) d2 d2 =ee d2 !courtesy!=e4 d4 z2 | %2
w: shake off sloth- ful * * ness, set wan- ton- ness a- part.|
 d2 d2 d2 d3 d c2 d2 B2 BB c2 c2 z2 | B3 B c2 d3 d d2 B2 A2 A2 B4 z2 | %4
w: Ap- ply your wits whol- ly to learn- ing and vir- tue,|where- by you may do your du- ty to God,|
 c3 d e2 f3 e d3 (c B2) B2 A4 =B4 | !courtesy!_B4 d2 d2 c4 d2 A2 B2 G2 A4 z2 | %6
w: may do your du- ty to God * and your King.|Make glad your par- ents, pro- fit your- selves;|
 B4 A2 B2 c2 d2 (e3 dcB) c4 B4 z2 | d4 d2 d2 f2 f4 f4 d4 d4 z2 | %8
w: and much ad- vance the com * * * mon- weal.|the com- mon- weal of your coun- try,|
 B3 c (dB) A3 d d2 B2 A2 A2 =B4 z2 | d3 d G2 d3 d d2 B2 (AG) A2 =B6 | %10
w: where- by you * may do your du- ty to God;|may do your du- ty to God and * your King.|
V:4
 G,6 G,2 D,2 D,2 G,4 G,2 (F,4 G,2) D,4 z2 | D,2 G,2 D,2 A,4 D,2 D2 CC B,2 A,4 D,4 z2 | %2
w: O ye ten- der babes of Eng * land,|shake off sloth- ful- ness, set wan- ton- ness a- part.|
 G,2 G,2 G,2 (D,=E,F,)G, A,2 B,2 G,2 G,G, F,2 F,2 z2 | %3
w: Ap- ply your wits * * whol- ly to learn- ing and vir- tue,|
"^This edition ? Andrew Sims 2005" B,3 B, A,2 G,3 G, D,2 G,2 D,2 D,2 G,4 z2 | %4
w: where- by you may do your du- ty to God,|
 F,3 F, E,2 D,3 D, G,2 D,2 G,4 D,4 G,4 | G,4 G,3 B, A,4 G,2 F,2 E,2 E,2 D,4 z2 | %6
w: may do your du- ty to God and your King.|Make glad your par- ents, pro- fit your- selves;|
 G,4 D,2 G,2 F,2 (B,2 E,2) G,4 F,4 B,,4 z2 | G,4 D,2 G,2 F,2 B,4 (B,2 F,2) G,4 D,4 z2 | %8
w: and much ad- vance the * com- mon- weal.|the com- mon- weal of your * coun- try,|
 G,3 G, G,2 F,3 D, F,2 G,2 D,2 D,2 G,4 z2 | %9
w: where- by you may do your du- ty to God;|
 G,3 F, E,2 D,3"^Original text from the preface to \"An Introduction of the Eyght Partes of Speche, and the Construction of the Same, Compiled and Set Forthe by the Comaundement of Our Most Gracious Soverayne Lorde the King\":""^You tender babes of Englande, shake off slouthfulness, set wantonnes a parte, apply your wyttes holy to learnying and vertue, whereby you maye doo youre duetye to god and your kyng, make gladde your parentes, profytte your selues, and moche auaunce the common weale of your countrey." E, F,2 G,2 D,2 D,2 G,6 | %10
w: may do your du- ty to God and your King.|

